X: 1
T: the Monsignor's Blessing
T: Over the Bog Road
C: Fr Patrick Joseph Kelly
M: 4/4
L: 1/8
R: Reel
B: Mulvihill "1st Collection" 1986 p.61 3225
S: John Clancy
S: https://www.ibiblio.org/fiddlers/FARG_FAY.htm
K:G
(Bc) |\
d~G3 dGBd | c~F3 cFAc | d~G3 dGBG | BdcA G2Bc |
d~G3 dGBd | c~F3 cFAc | dG (3GGG dGBG | BdcA G2 :|
|: Bc |\
dggf agfe | fdcB AFAc | d~g3 a~g3 | d~f3 d~f3 |
d~g3 a2ge | fdcB AFAc | d~G3 dGBG | BdcA G2 :|
